src/logos/square.svg

<svg height="440" viewBox="0 0 440 440" width="440" xmlns="http://www.w3.org/2000/svg"><path d="m232.135135.53968254h-92.736486c-77.0270274 0-139.35810846 62.47619046-139.35810846 139.68253946 0 40.126984 17.22972976 78.730159 47.12837836 105.142857l-30.9121621 72.634921 76.5202702-46.222222c14.695946 5.587301 30.405405 8.126984 46.621622 8.126984h89.695946c76.013513 0 140.371621-59.936508 142.398648-136.126984 2.027027-78.730159-60.810811-143.23809546-139.358108-143.23809546zm.506757 228.57142846h-92.736487c-40.0337834 0-80.5743239-31.492063-88.1756753-71.111111-11.1486486-56.888889 31.9256757-106.6666667 87.1621623-106.6666667h92.736486c40.033784 0 80.574325 31.4920635 88.175676 71.1111107 11.148649 56.888889-31.925676 106.666667-87.162162 106.666667z" fill="#d8352a" fill-rule="evenodd" transform="translate(37 79)"/></svg>

<?xml version="1.0" encoding="UTF-8"?>
<svg width="440px" height="440px" viewBox="0 0 440 440" version="1.1" xmlns="http://www.w3.org/2000/svg" xmlns:xlink="http://www.w3.org/1999/xlink">
    <!-- Generator: Sketch 55.1 (78136) - https://sketchapp.com -->
    <title>square</title>
    <desc>Created with Sketch.</desc>
    <g id="square" stroke="none" stroke-width="1" fill="none" fill-rule="evenodd">
        <g id="TC_Icon" transform="translate(37.000000, 79.000000)" fill="#D8352A">
            <path d="M232.135135,0.53968254 L139.398649,0.53968254 C62.3716216,0.53968254 0.0405405405,63.015873 0.0405405405,140.222222 C0.0405405405,180.349206 17.2702703,218.952381 47.1689189,245.365079 L16.2567568,318 L92.777027,271.777778 C107.472973,277.365079 123.182432,279.904762 139.398649,279.904762 L229.094595,279.904762 C305.108108,279.904762 369.466216,219.968254 371.493243,143.777778 C373.52027,65.047619 310.682432,0.53968254 232.135135,0.53968254 L232.135135,0.53968254 Z M232.641892,229.111111 L139.905405,229.111111 C99.8716216,229.111111 59.3310811,197.619048 51.7297297,158 C40.5810811,101.111111 83.6554054,51.3333333 138.891892,51.3333333 L231.628378,51.3333333 C271.662162,51.3333333 312.202703,82.8253968 319.804054,122.444444 C330.952703,179.333333 287.878378,229.111111 232.641892,229.111111 Z" id="Shape"></path>
        </g>
    </g>
</svg>
